Origami/64x64/apps/fontforge.svg

<svg width="64" height="64" version="1" xmlns="http://www.w3.org/2000/svg">
 <path d="m32 5c-15.512 0-28 12.488-28 28s12.488 28 28 28 28-12.488 28-28-12.488-28-28-28z" style="opacity:.2"/>
 <path d="m32 4c-15.512 0-28 12.488-28 28s12.488 28 28 28 28-12.488 28-28-12.488-28-28-28z" style="fill:#cccccc"/>
 <path d="m33.738282 18c-3.699352 0-5.947638 4.138038-7.363282 7.816406l-1.777344 5.402344-2.261718 7.242188c-0.701988 2.037826-1.196522 5.277488-3.335938 5.539062-0.93584 0.11442-0.895431-2-2-2s-2 0.89543-2 2 0.895431 2 2 2h1.261719c4.277799 0 6.717463-5.381616 8.550781-11.304688l1.027344-3.34375 1.640624-5.277344c0.846754-2.181496 1.199248-5.770578 3.519532-6.074218 0.934838-0.122336 0.89543 2 2 2s2-0.89543 2-2c0-1.104569-0.89543-2-2-2z" style="fill:#404040"/>
 <rect x="19" y="28" width="16" height="2" style="fill:#404040"/>
 <path d="m45.738282 18c-3.699352 0-5.947638 4.138038-7.363282 7.816406l-1.777344 5.402344-2.261718 7.242188c-0.701988 2.037826-1.196522 5.277488-3.335938 5.539062-0.93584 0.11442-0.895431-2-2-2s-2 0.89543-2 2 0.895431 2 2 2h1.261719c4.277799 0 6.717463-5.381616 8.550781-11.304688l1.027344-3.34375 1.640624-5.277344c0.846754-2.181496 1.199248-5.770578 3.519532-6.074218 0.934838-0.122336 0.89543 2 2 2s2-0.89543 2-2c0-1.104569-0.89543-2-2-2z" style="fill:#404040"/>
 <rect x="31" y="28" width="16" height="2" style="fill:#404040"/>
 <path d="M 32 4 C 16.488 4 4 16.488 4 32 C 4 32.11345 4.0112805 32.224113 4.0175781 32.335938 C 4.3691213 17.134181 16.710728 5 32 5 C 47.289272 5 59.630879 17.134181 59.982422 32.335938 C 59.98872 32.224113 60 32.11345 60 32 C 60 16.488 47.512 4 32 4 z" style="fill:#ffffff;opacity:.2"/>
</svg>

<svg xmlns="http://www.w3.org/2000/svg" width="64" height="64" version="1">
 <path style="opacity:0.2" d="M 32,5 C 16.488,5 4,17.488 4,33 4,48.512 16.488,61 32,61 47.512,61 60,48.512 60,33 60,17.488 47.512,5 32,5 Z"/>
 <path style="fill:#cccccc" d="M 32,4 C 16.488,4 4,16.488 4,32 4,47.512 16.488,60 32,60 47.512,60 60,47.512 60,32 60,16.488 47.512,4 32,4 Z"/>
 <path style="fill:#404040" d="M 33.738282,18 C 30.03893,18 27.790644,22.138038 26.375,25.816406 l -1.777344,5.402344 -2.261718,7.242188 C 21.63395,40.498764 21.139416,43.738426 19,44 c -0.93584,0.11442 -0.895431,-2 -2,-2 -1.104569,0 -2,0.89543 -2,2 0,1.10457 0.895431,2 2,2 l 1.261719,0 c 4.277799,0 6.717463,-5.381616 8.550781,-11.304688 l 1.027344,-3.34375 1.640624,-5.277344 C 30.327222,23.892722 30.679716,20.30364 33,20 c 0.934838,-0.122336 0.89543,2 2,2 1.10457,0 2,-0.89543 2,-2 0,-1.104569 -0.89543,-2 -2,-2 z"/>
 <rect style="fill:#404040" width="16" height="2" x="19" y="28"/>
 <path style="fill:#404040" d="M 45.738282,18 C 42.03893,18 39.790644,22.138038 38.375,25.816406 l -1.777344,5.402344 -2.261718,7.242188 C 33.63395,40.498764 33.139416,43.738426 31,44 c -0.93584,0.11442 -0.895431,-2 -2,-2 -1.104569,0 -2,0.89543 -2,2 0,1.10457 0.895431,2 2,2 l 1.261719,0 c 4.277799,0 6.717463,-5.381616 8.550781,-11.304688 l 1.027344,-3.34375 1.640624,-5.277344 C 42.327222,23.892722 42.679716,20.30364 45,20 c 0.934838,-0.122336 0.89543,2 2,2 1.10457,0 2,-0.89543 2,-2 0,-1.104569 -0.89543,-2 -2,-2 z"/>
 <rect style="fill:#404040" width="16" height="2" x="31" y="28"/>
 <path style="opacity:0.2;fill:#ffffff" d="M 32 4 C 16.488 4 4 16.488 4 32 C 4 32.11345 4.0112805 32.224113 4.0175781 32.335938 C 4.3691213 17.134181 16.710728 5 32 5 C 47.289272 5 59.630879 17.134181 59.982422 32.335938 C 59.98872 32.224113 60 32.11345 60 32 C 60 16.488 47.512 4 32 4 z"/>
</svg>
